src/assets/icon/sidebar-search-folder.svg

<svg width="24" height="24" viewBox="0 0 24 24" fill="none" xmlns="http://www.w3.org/2000/svg">
<path d="M6.1 17.9C5.69438 17.9 5.34701 17.7555 5.05791 17.4664C4.76881 17.1773 4.62451 16.8301 4.625 16.425V7.57501C4.625 7.16938 4.76955 6.82202 5.05865 6.53292C5.34775 6.24382 5.69487 6.09952 6.1 6.10001H10.525L12 7.57501H17.9C18.3056 7.57501 18.653 7.71956 18.9421 8.00866C19.2312 8.29776 19.3755 8.64487 19.375 9.05001V16.425C19.375 16.8306 19.2304 17.178 18.9413 17.4671C18.6522 17.7562 18.3051 17.9005 17.9 17.9H6.1Z" fill="#7170DE"/>
</svg>

<svg xmlns="http://www.w3.org/2000/svg" width="24" height="24" fill="none"><path fill="#7170DE" d="M6.1 17.9a1.42 1.42 0 0 1-1.042-.434 1.418 1.418 0 0 1-.433-1.041v-8.85c0-.406.145-.753.434-1.042.289-.29.636-.433 1.041-.433h4.425L12 7.575h5.9c.406 0 .753.145 1.042.434.29.289.433.636.433 1.041v7.375c0 .406-.145.753-.434 1.042-.289.29-.636.434-1.041.433H6.1Z"/></svg>
